X: 1
T: Osmica
O: Romania
C: Trad.
Z: http://swiss.csail.mit.edu/~jaffer/Music
Q: 3/8=120
M: 6/8
L: 1/8
K: G
%%MIDI gchord f3f3
"Am"[A3D3]~e3 | [ed][ec][eB] [e2A2]G |"G"[ec]G[ec] [ec]G[ec] | [e2B2]A [e2G2] D |
"Am" G3 ~e3   | dcB [e2A2]G          |"G"[ec]G[ec] [ec]G[ec] | [e2B2]A G2 z ||
Q: 3/8=135
M: 7/8
%%MIDI gchord f2f2f3
"G"D2 G2 ~G3 | [f2B2] [g2c2] [a3d3D3] |"Am"[e2d2] [ec]B [e2A2]G | [eA]c B[eA] (4G-GFG |
"G"D2 G2 ~G3 | [f2B2] [g2c2] [a3d3D3] |"Am"[e2d2] [ec]B [eA][fB]G | [e2A2D2] z2 z3 ||
N:
N:
N: Arrangement Copyright (C) 1999 Voluntocracy.
N:
N: Permission is granted to copy and distribute modified or unmodified versions of this music
N: provided the copyright notice and this permission notice are preserved on all copies and the
N: entire such work is distributed under the terms of a permission notice identical to this one.
